src/assets/img/svgIcons/multi/viber.svg

<svg xmlns="http://www.w3.org/2000/svg" width="48" height="48" fill="none" viewBox="0 0 48 48" id="viber"><path fill="#7360F2" d="M24 0C37.2548 0 48 10.7452 48 24C48 37.2548 37.2548 48 24 48C10.7452 48 0 37.2548 0 24C0 10.7452 10.7452 0 24 0Z"></path><path fill="#fff" d="M24.7432 18.949C24.7555 18.7136 24.9563 18.5327 25.1917 18.545C26.0725 18.5909 26.8053 18.8575 27.3272 19.3972C27.8471 19.9347 28.102 20.6857 28.1467 21.5876C28.1584 21.8231 27.977 22.0234 27.7416 22.0351C27.5061 22.0468 27.3058 21.8654 27.2941 21.6299C27.2558 20.8579 27.044 20.3323 26.7136 19.9907C26.3852 19.6511 25.884 19.436 25.1472 19.3975C24.9118 19.3852 24.7309 19.1844 24.7432 18.949Z"></path><path fill="#fff" d="M24.553 16.2549C24.3179 16.2377 24.1134 16.4143 24.0962 16.6494C24.079 16.8845 24.2556 17.0891 24.4907 17.1063C26.1159 17.2252 27.3365 17.7692 28.2096 18.7222C29.0854 19.6792 29.5152 20.8721 29.4836 22.3337C29.4785 22.5694 29.6654 22.7646 29.9011 22.7697C30.1368 22.7748 30.332 22.5879 30.3371 22.3522C30.3729 20.6948 29.8789 19.2817 28.8394 18.1459L28.8392 18.1457C27.7883 16.9985 26.3455 16.3861 24.553 16.2549Z"></path><path fill="#fff" d="M23.3426 14.4634C23.3443 14.2277 23.5367 14.0379 23.7724 14.0395 26.2495 14.0568 28.3434 14.8814 30.0245 16.5203 31.7196 18.1728 32.558 20.4225 32.5792 23.2167 32.581 23.4524 32.3914 23.645 32.1556 23.6468 31.9199 23.6486 31.7274 23.4589 31.7256 23.2232 31.7056 20.6049 30.9267 18.592 29.4286 17.1315 27.9164 15.6574 26.0388 14.909 23.7665 14.8932 23.5308 14.8915 23.341 14.6991 23.3426 14.4634zM26.1771 26.9785C25.854 27.3765 25.254 27.3258 25.254 27.3258 20.8686 26.2063 19.695 21.7642 19.695 21.7642 19.695 21.7642 19.6423 21.1642 20.0423 20.8412L20.8347 20.2113C21.2276 19.9085 21.4783 19.1738 21.0783 18.4563 20.7715 17.9177 20.4379 17.3949 20.0788 16.8897 19.7299 16.4132 18.9172 15.4375 18.9142 15.4345 18.5223 14.9722 17.9461 14.8648 17.3385 15.1813 17.3366 15.1813 17.3341 15.1821 17.3317 15.1829 17.3294 15.1836 17.3273 15.1843 17.3258 15.1843 16.7215 15.5325 16.1766 15.9749 15.7116 16.4947 15.71 16.4979 15.7084 16.4994 15.7068 16.501 15.7054 16.5023 15.7039 16.5037 15.7025 16.5064 15.3271 16.9594 15.1123 17.4035 15.0579 17.8386 15.0466 17.9027 15.0427 17.968 15.0463 18.033 15.0442 18.2251 15.0735 18.4163 15.1328 18.5991L15.1536 18.6133C15.343 19.2857 15.8169 20.4057 16.8468 22.2731 17.4359 23.3532 18.1153 24.3815 18.8777 25.3471 19.2597 25.8311 19.6692 26.2928 20.1041 26.7299 20.1093 26.7351 20.1145 26.7403 20.1196 26.7455 20.13 26.756 20.1402 26.7663 20.1507 26.7764L20.2904 26.9162C20.7275 27.3511 21.1892 27.7606 21.6732 28.1426 22.6389 28.9051 23.6674 29.5845 24.7477 30.1735 26.6146 31.2034 27.7356 31.6773 28.407 31.8667L28.4212 31.8874C28.6039 31.947 28.7951 31.9764 28.9873 31.9745 29.0523 31.9777 29.1175 31.9736 29.1817 31.9624 29.6175 31.9107 30.0612 31.6962 30.5129 31.3188 30.5184 31.3158 30.5184 31.3127 30.5245 31.3097 31.0444 30.8446 31.4869 30.2997 31.8354 29.6955 31.8354 29.6943 31.8358 29.6925 31.8363 29.6907 31.8371 29.6879 31.838 29.6849 31.838 29.6828 32.1544 29.0752 32.0471 28.499 31.5823 28.1066 31.5817 28.1066 31.5437 28.0754 31.4796 28.0225 31.2161 27.8054 30.5102 27.2238 30.127 26.942 29.6223 26.583 29.1 26.2494 28.5619 25.9425 27.844 25.5425 27.1108 25.7931 26.807 26.1861L26.1771 26.9785z"></path><path fill="#fff" fill-rule="evenodd" d="M36.3879 11.2911C35.5494 10.5174 32.161 8.05764 24.6135 8.02422C24.6135 8.02422 15.7131 7.4875 11.3743 11.4673C8.95907 13.8831 8.10943 17.4178 8.01981 21.8002C7.93019 26.1825 7.81423 34.3953 15.7308 36.6222H15.7384L15.7334 40.0202C15.7334 40.0202 15.6827 41.3959 16.5886 41.6765C17.503 41.9604 18.1022 41.2792 18.8835 40.3908C19.0383 40.2147 19.2004 40.0305 19.3734 39.844C19.9476 39.2253 20.7405 38.3164 21.338 37.6217C26.7523 38.0774 30.9164 37.0359 31.3893 36.8819C31.4869 36.8503 31.6251 36.8152 31.7965 36.7716L31.7966 36.7716C33.5458 36.3268 38.7583 35.0014 39.6745 27.5228C40.713 19.0583 39.1723 13.7043 36.3879 11.2911ZM37.3054 26.9157C36.5408 33.0897 32.397 34.0539 30.9039 34.4013L30.9038 34.4013L30.9036 34.4014C30.7386 34.4397 30.606 34.4706 30.5139 34.5001C30.1205 34.6267 26.4632 35.5366 21.8641 35.2363C21.8641 35.2363 18.4372 39.3706 17.3668 40.4456C17.1997 40.6137 17.0033 40.6815 16.8721 40.6481C16.6878 40.603 16.6372 40.3848 16.6392 40.0658C16.6422 39.6101 16.6686 34.4191 16.6686 34.4191C10.193 32.6213 10.3441 26.0262 10.4298 22.283L10.4298 22.2827C10.4327 22.1549 10.4356 22.0304 10.4381 21.9095C10.514 18.2492 11.2016 15.2507 13.2442 13.2339C16.9141 9.90982 24.4743 10.4065 24.4743 10.4065C30.8587 10.4344 33.918 12.357 34.6274 13.001C36.9829 15.0178 38.1829 19.8437 37.3054 26.9137V26.9157Z" clip-rule="evenodd"></path></svg>

<svg xmlns="http://www.w3.org/2000/svg" fill="none" viewBox="0 0 48 48">
  <path fill="#7360f2" d="M24 0c13.255 0 24 10.745 24 24S37.255 48 24 48 0 37.255 0 24 10.745 0 24 0"/>
  <path fill="#fff" d="M24.743 18.949a.427.427 0 0 1 .449-.404c.88.046 1.613.313 2.135.852.52.538.775 1.289.82 2.19a.427.427 0 1 1-.853.043c-.038-.772-.25-1.298-.58-1.64-.329-.339-.83-.554-1.567-.592a.427.427 0 0 1-.404-.449"/>
  <path fill="#fff" d="M24.553 16.255a.427.427 0 1 0-.062.851c1.625.12 2.846.663 3.719 1.616.875.957 1.305 2.15 1.274 3.612a.427.427 0 1 0 .853.018c.036-1.657-.458-3.07-1.498-4.206-1.05-1.148-2.493-1.76-4.286-1.891"/>
  <path fill="#fff" d="M23.343 14.463a.427.427 0 0 1 .43-.423c2.477.017 4.57.841 6.252 2.48 1.695 1.653 2.533 3.903 2.554 6.697a.427.427 0 1 1-.853.006c-.02-2.618-.8-4.631-2.297-6.091-1.513-1.475-3.39-2.223-5.662-2.239a.427.427 0 0 1-.424-.43m2.834 12.516c-.323.398-.923.347-.923.347-4.385-1.12-5.559-5.562-5.559-5.562s-.053-.6.347-.923l.793-.63c.393-.302.643-1.037.243-1.755a19 19 0 0 0-1-1.566 42 42 0 0 0-1.164-1.456c-.392-.462-.968-.57-1.576-.253l-.006.002-.006.001a6.6 6.6 0 0 0-1.614 1.31l-.005.007-.005.005q-.563.68-.644 1.333a1 1 0 0 0-.012.194q-.003.29.087.566l.02.014c.19.673.664 1.793 1.694 3.66a22 22 0 0 0 2.03 3.074 16 16 0 0 0 1.243 1.398l.03.031.14.14q.658.653 1.383 1.227a22 22 0 0 0 3.075 2.03c1.867 1.03 2.988 1.504 3.659 1.694l.014.02q.276.09.566.087a1 1 0 0 0 .195-.012q.654-.077 1.33-.643c.006-.003.006-.006.012-.01a6.6 6.6 0 0 0 1.312-1.618l.002-.008c.316-.608.21-1.184-.256-1.576l-.102-.084c-.264-.218-.97-.8-1.353-1.081a19 19 0 0 0-1.565-1c-.718-.4-1.451-.149-1.755.244z"/>
  <path fill="#fff" fill-rule="evenodd" d="M36.388 11.291c-.839-.774-4.227-3.233-11.774-3.267 0 0-8.9-.536-13.24 3.443C8.96 13.883 8.11 17.417 8.02 21.8s-.206 12.595 7.71 14.822h.008l-.005 3.398s-.05 1.376.856 1.656c.914.284 1.513-.397 2.295-1.285q.23-.265.49-.547a89 89 0 0 0 1.964-2.222c5.414.455 9.578-.586 10.051-.74q.148-.047.408-.11c1.749-.445 6.961-1.77 7.878-9.25 1.038-8.464-.503-13.818-3.287-16.23m.917 15.625c-.764 6.174-4.908 7.138-6.401 7.485-.165.039-.298.07-.39.1-.393.126-4.05 1.036-8.65.735 0 0-3.427 4.135-4.497 5.21-.167.168-.364.236-.495.202-.184-.045-.235-.263-.233-.582l.03-5.647c-6.476-1.798-6.325-8.393-6.24-12.136l.01-.373c.075-3.66.763-6.66 2.805-8.676 3.67-3.324 11.23-2.828 11.23-2.828 6.385.028 9.444 1.951 10.153 2.595 2.356 2.017 3.556 6.843 2.678 13.913z" clip-rule="evenodd"/>
</svg>
